packages/design-system/src/icons/assets/symbol logo.svg

<svg width="48" height="49" viewBox="0 0 48 49" fill="none" xmlns="http://www.w3.org/2000/svg">
<path fill-rule="evenodd" clip-rule="evenodd" d="M36.4383 3.18727L29.7395 9.96876V0.524902H17.6816V9.96876L11.1978 3.40494L2.66299 12.0283L8.96485 18.4079H0V23.9838H18.1116C19.2695 23.9838 20.4273 23.6992 21.337 22.9624C23.6361 21.1205 24.0331 17.5707 24.0331 10.7557C24.0331 17.5707 24.43 21.1205 26.7292 22.9624C27.6389 23.6824 28.8132 23.9838 29.9545 23.9838H47.9835V18.5586L47.8346 18.4079H38.4397L44.9566 11.8106L36.4218 3.17052L36.4383 3.18727ZM48 25.5243H30.3515C29.5741 25.5243 28.7801 25.675 28.0689 25.9932C24.5789 27.5839 24.0496 30.9997 24.0496 38.9534C24.0496 33.8965 23.3218 30.4472 22.1309 28.2872C21.1551 26.529 19.2529 25.5243 17.2516 25.5243H0V30.6314H9.32874L2.69607 37.3459L11.2309 45.986L17.6816 39.4557V49H29.7395V39.4557L36.5872 46.3879H36.6203L45.122 37.7645L38.0924 30.6481H48V25.5411V25.5243Z" fill="black"/>
</svg>

<svg xmlns="http://www.w3.org/2000/svg" width="48" height="49" fill="none"><path fill="#000" fill-rule="evenodd" d="M36.438 3.187 29.74 9.97V.525H17.682v9.444l-6.484-6.564-8.535 8.623 6.302 6.38H0v5.576h18.112c1.158 0 2.315-.285 3.225-1.022 2.3-1.841 2.696-5.391 2.696-12.206 0 6.815.397 10.365 2.696 12.206.91.72 2.084 1.022 3.226 1.022h18.029v-5.425l-.15-.151H38.44l6.517-6.597-8.535-8.64zM48 25.524H30.352a5.6 5.6 0 0 0-2.283.47c-3.49 1.59-4.02 5.006-4.02 12.96 0-5.057-.727-8.507-1.918-10.667-.976-1.758-2.878-2.763-4.88-2.763H0v5.107h9.329l-6.633 6.715 8.535 8.64 6.45-6.53V49H29.74v-9.544l6.848 6.932h.033l8.502-8.623-7.03-7.117H48z" clip-rule="evenodd"/></svg>
